X: 29000
T: Naughton's
R: reel
M: 4/4
K: Amixolydian
|A2 EA cded|BG G2 eGdG|EAce a2 ed|cedB cAAG|
A2 EA cded|BG G2 eGdG|EAce a2 ed|cedB cA A2||
a2 ea a2 ba|geef g3b|a2 ea a2 ba|gedB EA A2|
a2 ea a2 ba|geef g3a|b3a gbag|gedB eBdB||

